X:1
T:Ever Forward! Up and Onward
T:Ever Forward! Up and Onward
T:Leander Lycurgus Pickett
T:Elisha Albright Hoffman, 1914
T:Public Domain Courtesy of the Cyber Hymnal™
T:Public Domain Courtesy of the Cyber Hymnal™
C:Leander Lycurgus Pickett
Z:Public Domain
Z:Courtesy of the Cyber Hymnal™
%%score ( 1 2 ) ( 3 4 )
L:1/8
Q:1/4=100
M:4/4
K:Ab
V:1 treble 
V:2 treble 
V:3 bass 
V:4 bass 
V:1
 [CE]3 [CE] [=B,=D][CE][CA][D=B] | [Ec]4 [CA]4 | [DB]3 [DB] [DB][DG][=DA][DF] | E6 z2 | %4
w: 1.~Men of faith and men of|cour- age,|Wait- ing or- ders from the|Lord,|
w: 2.~“Ev- er for- ward! up and|on- ward,”|Our Je- ho- vah bids us|go;|
w: 3.~Strike for right and strike for|jus- tice,|Strike for home and na- tive|land!|
w: 4.~Press the bat- tle! fear- less|ev- er,|And the foe- man must give|way!|
 [CE]3 [CE] [=B,=D][CE][CA][D=B] | [Ec]4 [CA]4 | [EB]3 [Ec] [Ed][EB][DG][DE] | [CA]6 z2 | %8
w: Here’s a tel- e- gram from|Heav- en!|“On- ward! for- ward!” is the|word;|
w: “On- ward! for- ward! ev- er|on- ward!”|Ev- ery heart with faith a-|glow;|
w: Strike for God and for His|king- dom|With a firm and fear- less|hand!|
w: Press the bat- tle! ne- ver|fal- ter!|Vic- t’ry waits our flag to-|day!|
 [EB]3 [Ec] [Ed]>[EB] [Ee][Ed] | [Ec]4 [CA]4 | [EB]3 [Ec] [Ed][EB][Ee][Ed] | [Ec]6 z2 | %12
w: Get you rea- dy for the|bat- tle,|Press in- to the hot- test|fray,|
w: Nerve- less syc- o- phants may|cow- er,|We will bold, un- fear- ing|be,|
w: Dare to front the e- vil|le- gions|That would fill us with af-|fright,|
w: God has pledged His arm of|pow- er|And His might will be dis-|played,|
 [CE]3 [CE] [=B,=D][CE][CA][D=B] | [Ec]4 [EB]3 z | [EB]3 [Ec] [Ed][EB][DG][DE] | [CA]6 z2 || %16
w: “On- ward! for- ward!” be the|watch- word|All a- long the lines to-|day.|
w: For Je- ho- vah’s pledge as-|sures us|Ours will be the vic- to-|ry.|
w: For the Lord who reigns in|Heav- en|Will be with us in the|fight.|
w: If we press the ear- nest|con- flict,|Trust- ing Him and un- a-|fraid.|
"^Refrain" [EB]3 [EB] [EB][EG][EA][EB] | [Ec]4 [EA]4 | [Ae]3 [Ae] [Ed][Ec][DB][CA] | (c4 B2) z2 | %20
w: ||||
w: “Ev- er for- ward, up and|on- ward!”|Men, lift up your hearts and|pray, *|
w: ||||
w: ||||
 [CE]3 [CE] [=B,=D][CE][CA][D=B] | [Ec]4 [Ae]3 z | [GB]3 [Ac] [Gd][GB][EG]E | [EA]6 z2 |] %24
w: ||||
w: Trust in God and press the|bat- tle,|Vic- t’ry will be ours to-|day.|
w: ||||
w: ||||
V:2
 x8 | x8 | x8 | (E4 D2) x2 | x8 | x8 | x8 | x8 | x8 | x8 | x8 | x8 | x8 | x8 | x8 | x8 || x8 | x8 | %18
 x8 | E6 x2 | x8 | x8 | x7 E | x8 |] %24
V:3
 [A,,A,]3 [A,,A,] [A,,A,][A,,A,][A,,A,][A,,A,] | [A,,A,]4 [A,,E,]4 | %2
 [E,G,]3 [E,G,] [E,G,][E,B,][B,,B,][B,,A,] | [E,G,]6 z2 | %4
 [A,,A,]3 [A,,A,] [A,,A,][A,,A,][A,,A,][A,,A,] | [A,,A,]4 [A,,E,]4 | %6
 [E,G,]3 [E,A,] [E,B,][E,G,][E,B,][E,B,] | [A,,A,]6 z2 | %8
 [E,G,]3 [E,A,] [E,B,]>[E,G,] [E,G,][E,B,] | [A,,A,]4 [A,,A,]4 | %10
 [E,G,]3 [E,A,] [E,B,][E,G,][E,G,][E,B,] | [A,,A,]6 z2 | %12
 [A,,A,]3 [A,,A,] [A,,A,][A,,A,][A,,A,][A,,A,] | [E,A,]4 [E,G,]3 z | %14
 [E,G,]3 [E,A,] [E,B,][E,G,][E,B,][E,G,] | [A,,A,]6 z2 || %16
 [E,G,]3 [E,G,] [E,G,][D,B,][C,A,][B,,G,] | [A,,A,]4 [A,,C]4 | [A,C]3 [A,C] [G,B,]A,[E,G,][F,A,] | %19
 (A,4 G,2) z2 | [A,,A,]3 [A,,A,] [A,,A,][A,,A,][A,,A,][A,,A,] | [A,,A,]4 [A,C]3 z | %22
 [E,E]3 [E,E] [E,E][E,E][E,D][E,B,] | [A,,A,C]6 z2 |] %24
V:4
 x8 | x8 | x8 | x8 | x8 | x8 | x8 | x8 | x8 | x8 | x8 | x8 | x8 | x8 | x8 | x8 || x8 | x8 | %18
 x5 A, x2 | E,6 x2 | x8 | x8 | x8 | x8 |] %24

